!!!OTL: Adam hatte sieben Söhne (261), S. 559
!!!id: T0451
**kern
*clefG2
*k[f#c#]
*D:
*M2/4
{8.d
16e
8f#
8g
=2
8a
8a
4a}
=3
{8.b
16cc#
8dd
8b
=4
8b
8a
4a}
=5
{8g
8e
8f#
8d
=6
8f#
8c#
8d
8d}
=7
{8g
8e
8f#
8d
=8
8f#
8c#
4d}
==
*-
!!!minrhy: 16
!!!meters: 2/4 ]  ZZ[4
!!!cut: Adam hatte sieben Söhne (261), S. 559
!!!reg: Luxemburg
!!!trd: Singendes Volk, Esch-Alzette, 1937 posth.
!!!rhy1: X_.XX_X_  X_X_X__
!!!rhy2: X_.XX_X_  X_X_X__
!!!key: T0451  16  D 2/4 ]  ZZ[4
!!!mod: HEPTATONIK IONISCH]  AMBITUS[9b
!!!kad: 5511
!!!akz: 15_66_43_43_
!!!fot: 'a__b__c__cv_
!!!for: 'a__a__b__bw_
!!!fok: '/__^d_Sd_Sd_
!! PHRAS[VOLLTAKTIG]
!!!fkt: Scherz-, Spiel-, Spottlied
!!!bem: Junglinster, fff Mutter des Verfassers, um 1890
!! THILL; Mathias
!! PR[76] 2K[0] 2G[3] 3K[3] 3G[0] 4A[3] 4Ü[0] 5A[0] 6K[0] 6G[0]
!! 7K[0] 7G[0] 8A[0] MEHR[0] SI[10] ABS[29] SR[3] SP[7]
!! ST[7] 2k[0] 2g[7] 3k[7] 3g[0] 4d[0] 4ü[0] 5d[0] 6k[0] 6g[0]
!! 7k[0] 7g[0] 8d[0] mehr[0] si[14] dm[-4] sr[7] sp[7]
!! 1F[11] 2F[71] 3F[9] 4F[0] LF[0] 2P[0] 3P[9] 4P[0] TRI[0] DF[4] AB[35]
!! TF[0] U3K[0] U3[0] U4[0] U4Ü[0] U5[0] U6K[0] U6[0] U7K[0] U7[0]
!! N1[0] N2K[0] N2[13] N3K[0] N3[70] N4[3] N4Ü[0] N5[13] N6K[0] N6[0]
!!!n7k: 0] N7[0] O1[0] O2K[0] O2[0] O3K[0] O3[0] HÖ[0
